(.../EAGLE-7.7.0/ulp/pcb-gcode.ulp)
(Copyright 2005 - 2012 by John Johnson)
(See readme.txt for licensing terms.)
(This file generated from the board:)
(.../Electronics/Position_potmeter.brd)
(Current profile is .../EAGLE-7.7.0/ulp/profiles/mach.pp  )
(This file generated 7-12-2017 14:38)
(Settings from pcb-machine.h)
(spindle on time = 3.0000)
(  Tool Size)
(0.1778  )
(spindle speed = 30000.0000)
(tool change at 0.0000  0.0000  40.0000 )
(feed rate xy = F508   )
(feed rate z  = F254   )
(Z Axis Settings)
(  High     Up        Down     Drill)
(15.0000 	2.5400  	-0.1778 	-2.0000 )
(Settings from pcb-defaults.h)
(isolate min = 0.0254)
(isolate max = 0.5080)
(isolate step = 0.1270)
(Generated top outlines, top drill, bottom outlines, bottom drill, )
(Unit of measure: mm)
(Metric Mode)
G21
(Absolute Coordinates)
G90
S30000
G00 Z15.0000 
G00 X0.0000  Y0.0000  
M03
G04 P3.000000
G00 Z2.5400  
G00 X4.9390  Y1.7427  
G01 Z-0.1778 F254   
G01 X4.9039  Y1.8036  F508   
G01 X4.8857  Y1.8714  
G01 X4.8857  Y1.9416  
G01 X4.9039  Y2.0094  
G01 X4.9390  Y2.0703  
G01 X4.9886  Y2.1199  
G01 X5.0495  Y2.1550  
G01 X5.1173  Y2.1732  
G01 X7.5263  Y2.1732  
G01 X7.5941  Y2.1550  
G01 X7.6550  Y2.1199  
G01 X7.7046  Y2.0703  
G01 X7.7397  Y2.0094  
G01 X7.7579  Y1.9416  
G01 X7.7579  Y1.8714  
G01 X7.7397  Y1.8036  
G01 X7.7046  Y1.7427  
G01 X7.6550  Y1.6931  
G01 X7.5941  Y1.6580  
G01 X7.5263  Y1.6398  
G01 X5.1173  Y1.6398  
G01 X5.0495  Y1.6580  
G01 X4.9886  Y1.6931  
G01 X4.9390  Y1.7427  
G00 Z2.5400  
G00 X8.5837  Y1.1517  
G01 Z-0.1778 F254   
G01 X8.5837  Y2.8483  F508   
G01 X8.6174  Y3.0176  
G01 X8.6834  Y3.1771  
G01 X8.7793  Y3.3206  
G01 X8.9014  Y3.4427  
G01 X9.0449  Y3.5386  
G01 X9.2044  Y3.6046  
G01 X9.3737  Y3.6383  
G01 X9.4793  Y3.6383  
G01 X9.4793  Y4.0857  
G01 X9.3273  Y4.0857  
G01 X9.2853  Y4.1031  
G01 X9.2531  Y4.1353  
G01 X9.2357  Y4.1773  
G01 X9.2357  Y5.8227  
G01 X9.2531  Y5.8647  
G01 X9.2853  Y5.8969  
G01 X9.3273  Y5.9143  
G01 X9.4793  Y5.9143  
G01 X9.4793  Y6.0857  
G01 X9.3773  Y6.0857  
G01 X9.3353  Y6.1031  
G01 X9.3031  Y6.1353  
G01 X9.2857  Y6.1773  
G01 X9.2857  Y7.8227  
G01 X9.3031  Y7.8647  
G01 X9.3353  Y7.8969  
G01 X9.3773  Y7.9143  
G01 X9.5293  Y7.9143  
G01 X9.5293  Y8.1857  
G01 X8.5773  Y8.1857  
G01 X8.5353  Y8.2031  
G01 X8.5031  Y8.2353  
G01 X8.4857  Y8.2773  
G01 X8.4857  Y10.3227 
G01 X8.5031  Y10.3647 
G01 X8.5353  Y10.3969 
G01 X8.5773  Y10.4143 
G01 X10.4227 Y10.4143 
G01 X10.4647 Y10.3969 
G01 X10.4969 Y10.3647 
G01 X10.5143 Y10.3227 
G01 X10.5143 Y9.5372  
G01 X10.5352 Y9.5010  
G01 X10.5707 Y9.3686  
G01 X10.5707 Y7.9143  
G01 X10.7227 Y7.9143  
G01 X10.7647 Y7.8969  
G01 X10.7969 Y7.8647  
G01 X10.8143 Y7.8227  
G01 X10.8143 Y6.1773  
G01 X10.7969 Y6.1353  
G01 X10.7647 Y6.1031  
G01 X10.7227 Y6.0857  
G01 X10.5207 Y6.0857  
G01 X10.5207 Y5.9143  
G01 X10.6727 Y5.9143  
G01 X10.7147 Y5.8969  
G01 X10.7469 Y5.8647  
G01 X10.7643 Y5.8227  
G01 X10.7643 Y4.1773  
G01 X10.7469 Y4.1353  
G01 X10.7147 Y4.1031  
G01 X10.6727 Y4.0857  
G01 X10.5207 Y4.0857  
G01 X10.5207 Y1.9314  
G01 X10.4852 Y1.7990  
G01 X10.4167 Y1.6803  
G01 X10.3363 Y1.5999  
G01 X10.3363 Y1.1517  
G01 X10.3026 Y0.9824  
G01 X10.2366 Y0.8229  
G01 X10.1407 Y0.6794  
G01 X10.0186 Y0.5573  
G01 X9.8751  Y0.4614  
G01 X9.7156  Y0.3954  
G01 X9.5463  Y0.3617  
G01 X9.3737  Y0.3617  
G01 X9.2044  Y0.3954  
G01 X9.0449  Y0.4614  
G01 X8.9014  Y0.5573  
G01 X8.7793  Y0.6794  
G01 X8.6834  Y0.8229  
G01 X8.6174  Y0.9824  
G01 X8.5837  Y1.1517  
G00 Z2.5400  
G00 X11.1237 Y1.1517  
G01 Z-0.1778 F254   
G01 X11.1237 Y2.8483  F508   
G01 X11.1574 Y3.0176  
G01 X11.2234 Y3.1771  
G01 X11.3193 Y3.3206  
G01 X11.4414 Y3.4427  
G01 X11.4793 Y3.4680  
G01 X11.4793 Y4.0857  
G01 X11.3273 Y4.0857  
G01 X11.2853 Y4.1031  
G01 X11.2531 Y4.1353  
G01 X11.2357 Y4.1773  
G01 X11.2357 Y5.8227  
G01 X11.2531 Y5.8647  
G01 X11.2853 Y5.8969  
G01 X11.3273 Y5.9143  
G01 X11.4793 Y5.9143  
G01 X11.4793 Y6.0857  
G01 X11.2773 Y6.0857  
G01 X11.2353 Y6.1031  
G01 X11.2031 Y6.1353  
G01 X11.1857 Y6.1773  
G01 X11.1857 Y7.8227  
G01 X11.2031 Y7.8647  
G01 X11.2353 Y7.8969  
G01 X11.2773 Y7.9143  
G01 X11.4293 Y7.9143  
G01 X11.4293 Y8.1857  
G01 X11.0773 Y8.1857  
G01 X11.0353 Y8.2031  
G01 X11.0031 Y8.2353  
G01 X10.9857 Y8.2773  
G01 X10.9857 Y10.3227 
G01 X11.0031 Y10.3647 
G01 X11.0353 Y10.3969 
G01 X11.0773 Y10.4143 
G01 X12.9227 Y10.4143 
G01 X12.9647 Y10.3969 
G01 X12.9969 Y10.3647 
G01 X13.0143 Y10.3227 
G01 X13.0143 Y8.2773  
G01 X12.9969 Y8.2353  
G01 X12.9647 Y8.2031  
G01 X12.9227 Y8.1857  
G01 X12.4707 Y8.1857  
G01 X12.4707 Y7.9143  
G01 X12.6227 Y7.9143  
G01 X12.6647 Y7.8969  
G01 X12.6969 Y7.8647  
G01 X12.7143 Y7.8227  
G01 X12.7143 Y6.1773  
G01 X12.6969 Y6.1353  
G01 X12.6647 Y6.1031  
G01 X12.6227 Y6.0857  
G01 X12.5207 Y6.0857  
G01 X12.5207 Y5.9143  
G01 X12.6727 Y5.9143  
G01 X12.7147 Y5.8969  
G01 X12.7469 Y5.8647  
G01 X12.7643 Y5.8227  
G01 X12.7643 Y4.1773  
G01 X12.7469 Y4.1353  
G01 X12.7147 Y4.1031  
G01 X12.6727 Y4.0857  
G01 X12.5207 Y4.0857  
G01 X12.5207 Y3.4680  
G01 X12.5586 Y3.4427  
G01 X12.6807 Y3.3206  
G01 X12.7766 Y3.1771  
G01 X12.8426 Y3.0176  
G01 X12.8763 Y2.8483  
G01 X12.8763 Y1.1517  
G01 X12.8426 Y0.9824  
G01 X12.7766 Y0.8229  
G01 X12.6807 Y0.6794  
G01 X12.5586 Y0.5573  
G01 X12.4151 Y0.4614  
G01 X12.2556 Y0.3954  
G01 X12.0863 Y0.3617  
G01 X11.9137 Y0.3617  
G01 X11.7444 Y0.3954  
G01 X11.5849 Y0.4614  
G01 X11.4414 Y0.5573  
G01 X11.3193 Y0.6794  
G01 X11.2234 Y0.8229  
G01 X11.1574 Y0.9824  
G01 X11.1237 Y1.1517  
G00 Z2.5400  
G00 X13.6637 Y1.1517  
G01 Z-0.1778 F254   
G01 X13.6637 Y2.8483  F508   
G01 X13.6974 Y3.0176  
G01 X13.7634 Y3.1771  
G01 X13.8593 Y3.3206  
G01 X13.9814 Y3.4427  
G01 X14.0193 Y3.4680  
G01 X14.0193 Y8.1857  
G01 X13.5773 Y8.1857  
G01 X13.5353 Y8.2031  
G01 X13.5031 Y8.2353  
G01 X13.4857 Y8.2773  
G01 X13.4857 Y10.3227 
G01 X13.5031 Y10.3647 
G01 X13.5353 Y10.3969 
G01 X13.5773 Y10.4143 
G01 X15.4227 Y10.4143 
G01 X15.4647 Y10.3969 
G01 X15.4969 Y10.3647 
G01 X15.5143 Y10.3227 
G01 X15.5143 Y8.2773  
G01 X15.4969 Y8.2353  
G01 X15.4647 Y8.2031  
G01 X15.4227 Y8.1857  
G01 X15.0607 Y8.1857  
G01 X15.0607 Y3.4680  
G01 X15.0986 Y3.4427  
G01 X15.2207 Y3.3206  
G01 X15.3166 Y3.1771  
G01 X15.3826 Y3.0176  
G01 X15.4163 Y2.8483  
G01 X15.4163 Y1.1517  
G01 X15.3826 Y0.9824  
G01 X15.3166 Y0.8229  
G01 X15.2207 Y0.6794  
G01 X15.0986 Y0.5573  
G01 X14.9551 Y0.4614  
G01 X14.7956 Y0.3954  
G01 X14.6263 Y0.3617  
G01 X14.4537 Y0.3617  
G01 X14.2844 Y0.3954  
G01 X14.1249 Y0.4614  
G01 X13.9814 Y0.5573  
G01 X13.8593 Y0.6794  
G01 X13.7634 Y0.8229  
G01 X13.6974 Y0.9824  
G01 X13.6637 Y1.1517  
G00 Z2.5400  
G00 X15.9390 Y1.7427  
G01 Z-0.1778 F254   
G01 X15.9039 Y1.8036  F508   
G01 X15.8857 Y1.8714  
G01 X15.8857 Y1.9416  
G01 X15.9039 Y2.0094  
G01 X15.9390 Y2.0703  
G01 X15.9886 Y2.1199  
G01 X16.0495 Y2.1550  
G01 X16.1173 Y2.1732  
G01 X17.0551 Y2.1732  
G01 X17.0551 Y3.1110  
G01 X17.0733 Y3.1788  
G01 X17.1084 Y3.2397  
G01 X17.1580 Y3.2893  
G01 X17.2189 Y3.3244  
G01 X17.2867 Y3.3426  
G01 X17.3569 Y3.3426  
G01 X17.4247 Y3.3244  
G01 X17.4856 Y3.2893  
G01 X17.5352 Y3.2397  
G01 X17.5703 Y3.1788  
G01 X17.5885 Y3.1110  
G01 X17.5885 Y2.1732  
G01 X18.5263 Y2.1732  
G01 X18.5941 Y2.1550  
G01 X18.6550 Y2.1199  
G01 X18.7046 Y2.0703  
G01 X18.7397 Y2.0094  
G01 X18.7579 Y1.9416  
G01 X18.7579 Y1.8714  
G01 X18.7397 Y1.8036  
G01 X18.7046 Y1.7427  
G01 X18.6550 Y1.6931  
G01 X18.5941 Y1.6580  
G01 X18.5263 Y1.6398  
G01 X17.5885 Y1.6398  
G01 X17.5885 Y0.7020  
G01 X17.5703 Y0.6342  
G01 X17.5352 Y0.5733  
G01 X17.4856 Y0.5237  
G01 X17.4247 Y0.4886  
G01 X17.3569 Y0.4704  
G01 X17.2867 Y0.4704  
G01 X17.2189 Y0.4886  
G01 X17.1580 Y0.5237  
G01 X17.1084 Y0.5733  
G01 X17.0733 Y0.6342  
G01 X17.0551 Y0.7020  
G01 X17.0551 Y1.6398  
G01 X16.1173 Y1.6398  
G01 X16.0495 Y1.6580  
G01 X15.9886 Y1.6931  
G01 X15.9390 Y1.7427  
G00 Z2.5400  
G00 X12.9647 Y22.1031 
G01 Z-0.1778 F254   
G01 X12.9227 Y22.0857 F508   
G01 X11.0773 Y22.0857 
G01 X11.0353 Y22.1031 
G01 X11.0031 Y22.1353 
G01 X10.9857 Y22.1773 
G01 X10.9857 Y24.2227 
G01 X11.0031 Y24.2647 
G01 X11.0353 Y24.2969 
G01 X11.0773 Y24.3143 
G01 X12.9227 Y24.3143 
G01 X12.9647 Y24.2969 
G01 X12.9969 Y24.2647 
G01 X13.0143 Y24.2227 
G01 X13.0143 Y22.1773 
G01 X12.9969 Y22.1353 
G01 X12.9647 Y22.1031 
G00 Z2.5400  
G82 X12.0000 Y17.0000 Z-0.2794 F508   R2.5400  P1.000000
G82 X19.5000 Y7.0000  
G82 X4.5000  Y7.0000  
G82 X12.0000 Y27.0000 
G82 X12.0000 Y17.0000 
G82 X16.2500 Y11.5000 
G82 X7.7500  Y11.5000 
G82 X9.4600  Y2.0000  
G82 X12.0000 Y2.0000  
G82 X14.5400 Y2.0000  
G00 Z15.0000 
M05
M02
