(.../EAGLE-7.7.0/ulp/pcb-gcode.ulp)
(Copyright 2005 - 2012 by John Johnson)
(See readme.txt for licensing terms.)
(This file generated from the board:)
(.../Electronics/Position_potmeter.brd)
(Current profile is .../EAGLE-7.1.0/ulp/profiles/mach.pp  )
(This file generated 5-12-2017 16:45)
(Settings from pcb-machine.h)
(spindle on time = 1.0000)
(  Tool Size)
(0.1200  )
(spindle speed = 30000.0000)
(tool change at 0.0000  0.0000  25.4000 )
(feed rate xy = F508   )
(feed rate z  = F254   )
(Z Axis Settings)
(  High     Up        Down     Drill)
(40.0000 	2.5400  	-0.0750 	-1.8000 )
(Settings from pcb-defaults.h)
(isolate min = 0.0254)
(isolate max = 0.5080)
(isolate step = 0.1270)
(Generated top outlines, top drill, bottom outlines, bottom drill, )
(Unit of measure: mm)
(Metric Mode)
G21
(Absolute Coordinates)
G90
S30000
G00 Z40.0000 
G00 X0.0000  Y0.0000  
M03
G04 P1.000000
G00 Z2.5400  
G00 X-8.8018 Y0.6978  
G01 Z-0.0750 F254   
G01 X-8.9198 Y0.5798  F508   
G01 X-9.0586 Y0.4870  
G01 X-9.2128 Y0.4232  
G01 X-9.3765 Y0.3906  
G01 X-9.5435 Y0.3906  
G01 X-9.7072 Y0.4232  
G01 X-9.8614 Y0.4870  
G01 X-10.0002 Y0.5798  
G01 X-10.1182 Y0.6978  
G01 X-10.2110 Y0.8366  
G01 X-10.2748 Y0.9908  
G01 X-10.3074 Y1.1545  
G01 X-10.3074 Y2.8455  
G01 X-10.2748 Y3.0092  
G01 X-10.2110 Y3.1634  
G01 X-10.1182 Y3.3022  
G01 X-10.0002 Y3.4202  
G01 X-9.8614 Y3.5130  
G01 X-9.7072 Y3.5768  
G01 X-9.5435 Y3.6094  
G01 X-9.3765 Y3.6094  
G01 X-9.2128 Y3.5768  
G01 X-9.0586 Y3.5130  
G01 X-8.9198 Y3.4202  
G01 X-8.8018 Y3.3022  
G01 X-8.7090 Y3.1634  
G01 X-8.6452 Y3.0092  
G01 X-8.6126 Y2.8455  
G01 X-8.6126 Y1.1545  
G01 X-8.6452 Y0.9908  
G01 X-8.7090 Y0.8366  
G01 X-8.8018 Y0.6978  
G00 Z2.5400  
G00 X-11.3418 Y0.6978  
G01 Z-0.0750 F254   
G01 X-11.4598 Y0.5798  F508   
G01 X-11.5986 Y0.4870  
G01 X-11.7528 Y0.4232  
G01 X-11.9165 Y0.3906  
G01 X-12.0835 Y0.3906  
G01 X-12.2472 Y0.4232  
G01 X-12.4014 Y0.4870  
G01 X-12.5402 Y0.5798  
G01 X-12.6582 Y0.6978  
G01 X-12.7510 Y0.8366  
G01 X-12.8148 Y0.9908  
G01 X-12.8474 Y1.1545  
G01 X-12.8474 Y2.8455  
G01 X-12.8148 Y3.0092  
G01 X-12.7510 Y3.1634  
G01 X-12.6582 Y3.3022  
G01 X-12.5402 Y3.4202  
G01 X-12.4014 Y3.5130  
G01 X-12.2472 Y3.5768  
G01 X-12.0835 Y3.6094  
G01 X-11.9165 Y3.6094  
G01 X-11.7528 Y3.5768  
G01 X-11.5986 Y3.5130  
G01 X-11.4598 Y3.4202  
G01 X-11.3418 Y3.3022  
G01 X-11.2490 Y3.1634  
G01 X-11.1852 Y3.0092  
G01 X-11.1526 Y2.8455  
G01 X-11.1526 Y1.1545  
G01 X-11.1852 Y0.9908  
G01 X-11.2490 Y0.8366  
G01 X-11.3418 Y0.6978  
G00 Z2.5400  
G00 X-13.8818 Y0.6978  
G01 Z-0.0750 F254   
G01 X-13.9998 Y0.5798  F508   
G01 X-14.1386 Y0.4870  
G01 X-14.2928 Y0.4232  
G01 X-14.4565 Y0.3906  
G01 X-14.6235 Y0.3906  
G01 X-14.7872 Y0.4232  
G01 X-14.9414 Y0.4870  
G01 X-15.0802 Y0.5798  
G01 X-15.1982 Y0.6978  
G01 X-15.2910 Y0.8366  
G01 X-15.3548 Y0.9908  
G01 X-15.3874 Y1.1545  
G01 X-15.3874 Y2.8455  
G01 X-15.3548 Y3.0092  
G01 X-15.2910 Y3.1634  
G01 X-15.1982 Y3.3022  
G01 X-15.0802 Y3.4202  
G01 X-14.9414 Y3.5130  
G01 X-14.7872 Y3.5768  
G01 X-14.6235 Y3.6094  
G01 X-14.4565 Y3.6094  
G01 X-14.2928 Y3.5768  
G01 X-14.1386 Y3.5130  
G01 X-13.9998 Y3.4202  
G01 X-13.8818 Y3.3022  
G01 X-13.7890 Y3.1634  
G01 X-13.7252 Y3.0092  
G01 X-13.6926 Y2.8455  
G01 X-13.6926 Y1.1545  
G01 X-13.7252 Y0.9908  
G01 X-13.7890 Y0.8366  
G01 X-13.8818 Y0.6978  
G00 Z2.5400  
G82 X-12.0000 Y17.0000 Z-0.1000 F508   R2.5400  P0.500000
G82 X-19.5000 Y7.0000  
G82 X-4.5000 Y7.0000  
G82 X-12.0000 Y27.0000 
G82 X-12.0000 Y17.0000 
G82 X-16.2500 Y11.5000 
G82 X-7.7500 Y11.5000 
G82 X-9.4600 Y2.0000  
G82 X-12.0000 Y2.0000  
G82 X-14.5400 Y2.0000  
G00 Z40.0000 
M05
M02
