(.../EAGLE-7.7.0/ulp/pcb-gcode.ulp)
(Copyright 2005 - 2012 by John Johnson)
(See readme.txt for licensing terms.)
(This file generated from the board:)
(.../Electronics/Position_potmeter.brd)
(Current profile is .../EAGLE-7.7.0/ulp/profiles/mach.pp  )
(This file generated 7-12-2017 14:38)
(Settings from pcb-machine.h)
(spindle on time = 3.0000)
(  Tool Size)
(0.1778  )
(spindle speed = 30000.0000)
(tool change at 0.0000  0.0000  40.0000 )
(feed rate xy = F508   )
(feed rate z  = F254   )
(Z Axis Settings)
(  High     Up        Down     Drill)
(15.0000 	2.5400  	-0.1778 	-2.0000 )
(Settings from pcb-defaults.h)
(isolate min = 0.0254)
(isolate max = 0.5080)
(isolate step = 0.1270)
(Generated top outlines, top drill, bottom outlines, bottom drill, )
(Unit of measure: mm)
(Metric Mode)
G21
(Absolute Coordinates)
G90
S30000
G00 Z15.0000 
G00 X0.0000  Y0.0000  
M03
G04 P3.000000
G00 Z2.5400  
G00 X-8.7793 Y0.6794  
G01 Z-0.1778 F254   
G01 X-8.9014 Y0.5573  F508   
G01 X-9.0449 Y0.4614  
G01 X-9.2044 Y0.3954  
G01 X-9.3737 Y0.3617  
G01 X-9.5463 Y0.3617  
G01 X-9.7156 Y0.3954  
G01 X-9.8751 Y0.4614  
G01 X-10.0186 Y0.5573  
G01 X-10.1407 Y0.6794  
G01 X-10.2366 Y0.8229  
G01 X-10.3026 Y0.9824  
G01 X-10.3363 Y1.1517  
G01 X-10.3363 Y2.8483  
G01 X-10.3026 Y3.0176  
G01 X-10.2366 Y3.1771  
G01 X-10.1407 Y3.3206  
G01 X-10.0186 Y3.4427  
G01 X-9.8751 Y3.5386  
G01 X-9.7156 Y3.6046  
G01 X-9.5463 Y3.6383  
G01 X-9.3737 Y3.6383  
G01 X-9.2044 Y3.6046  
G01 X-9.0449 Y3.5386  
G01 X-8.9014 Y3.4427  
G01 X-8.7793 Y3.3206  
G01 X-8.6834 Y3.1771  
G01 X-8.6174 Y3.0176  
G01 X-8.5837 Y2.8483  
G01 X-8.5837 Y1.1517  
G01 X-8.6174 Y0.9824  
G01 X-8.6834 Y0.8229  
G01 X-8.7793 Y0.6794  
G00 Z2.5400  
G00 X-11.3193 Y0.6794  
G01 Z-0.1778 F254   
G01 X-11.4414 Y0.5573  F508   
G01 X-11.5849 Y0.4614  
G01 X-11.7444 Y0.3954  
G01 X-11.9137 Y0.3617  
G01 X-12.0863 Y0.3617  
G01 X-12.2556 Y0.3954  
G01 X-12.4151 Y0.4614  
G01 X-12.5586 Y0.5573  
G01 X-12.6807 Y0.6794  
G01 X-12.7766 Y0.8229  
G01 X-12.8426 Y0.9824  
G01 X-12.8763 Y1.1517  
G01 X-12.8763 Y2.8483  
G01 X-12.8426 Y3.0176  
G01 X-12.7766 Y3.1771  
G01 X-12.6807 Y3.3206  
G01 X-12.5586 Y3.4427  
G01 X-12.4151 Y3.5386  
G01 X-12.2556 Y3.6046  
G01 X-12.0863 Y3.6383  
G01 X-11.9137 Y3.6383  
G01 X-11.7444 Y3.6046  
G01 X-11.5849 Y3.5386  
G01 X-11.4414 Y3.4427  
G01 X-11.3193 Y3.3206  
G01 X-11.2234 Y3.1771  
G01 X-11.1574 Y3.0176  
G01 X-11.1237 Y2.8483  
G01 X-11.1237 Y1.1517  
G01 X-11.1574 Y0.9824  
G01 X-11.2234 Y0.8229  
G01 X-11.3193 Y0.6794  
G00 Z2.5400  
G00 X-13.8593 Y0.6794  
G01 Z-0.1778 F254   
G01 X-13.9814 Y0.5573  F508   
G01 X-14.1249 Y0.4614  
G01 X-14.2844 Y0.3954  
G01 X-14.4537 Y0.3617  
G01 X-14.6263 Y0.3617  
G01 X-14.7956 Y0.3954  
G01 X-14.9551 Y0.4614  
G01 X-15.0986 Y0.5573  
G01 X-15.2207 Y0.6794  
G01 X-15.3166 Y0.8229  
G01 X-15.3826 Y0.9824  
G01 X-15.4163 Y1.1517  
G01 X-15.4163 Y2.8483  
G01 X-15.3826 Y3.0176  
G01 X-15.3166 Y3.1771  
G01 X-15.2207 Y3.3206  
G01 X-15.0986 Y3.4427  
G01 X-14.9551 Y3.5386  
G01 X-14.7956 Y3.6046  
G01 X-14.6263 Y3.6383  
G01 X-14.4537 Y3.6383  
G01 X-14.2844 Y3.6046  
G01 X-14.1249 Y3.5386  
G01 X-13.9814 Y3.4427  
G01 X-13.8593 Y3.3206  
G01 X-13.7634 Y3.1771  
G01 X-13.6974 Y3.0176  
G01 X-13.6637 Y2.8483  
G01 X-13.6637 Y1.1517  
G01 X-13.6974 Y0.9824  
G01 X-13.7634 Y0.8229  
G01 X-13.8593 Y0.6794  
G00 Z2.5400  
G82 X-12.0000 Y17.0000 Z-0.2794 F508   R2.5400  P1.000000
G82 X-19.5000 Y7.0000  
G82 X-4.5000 Y7.0000  
G82 X-12.0000 Y27.0000 
G82 X-12.0000 Y17.0000 
G82 X-16.2500 Y11.5000 
G82 X-7.7500 Y11.5000 
G82 X-9.4600 Y2.0000  
G82 X-12.0000 Y2.0000  
G82 X-14.5400 Y2.0000  
G00 Z15.0000 
M05
M02
