(.../EAGLE-7.7.0/ulp/pcb-gcode.ulp)
(Copyright 2005 - 2012 by John Johnson)
(See readme.txt for licensing terms.)
(This file generated from the board:)
(.../Electronics/Position_potmeter.brd)
(Current profile is .../EAGLE-7.1.0/ulp/profiles/mach.pp  )
(This file generated 5-12-2017 16:45)
(Settings from pcb-machine.h)
(spindle on time = 1.0000)
(  Tool Size)
(0.1200  )
(spindle speed = 30000.0000)
(tool change at 0.0000  0.0000  25.4000 )
(feed rate xy = F508   )
(feed rate z  = F254   )
(Z Axis Settings)
(  High     Up        Down     Drill)
(40.0000 	2.5400  	-0.0750 	-1.8000 )
(Settings from pcb-defaults.h)
(isolate min = 0.0254)
(isolate max = 0.5080)
(isolate step = 0.1270)
(Generated top outlines, top drill, bottom outlines, bottom drill, )
(Unit of measure: mm)
(Metric Mode)
G21
(Absolute Coordinates)
G90
S30000
G00 Z40.0000 
G00 X0.0000  Y0.0000  
M03
G04 P1.000000
G00 Z2.5400  
G00 X8.8018  Y0.6978  
G01 Z-0.0750 F254   
G01 X8.7090  Y0.8366  F508   
G01 X8.6452  Y0.9908  
G01 X8.6126  Y1.1545  
G01 X8.6126  Y2.8455  
G01 X8.6452  Y3.0092  
G01 X8.7090  Y3.1634  
G01 X8.8018  Y3.3022  
G01 X8.9198  Y3.4202  
G01 X9.0586  Y3.5130  
G01 X9.2128  Y3.5768  
G01 X9.3765  Y3.6094  
G01 X9.5082  Y3.6094  
G01 X9.5082  Y4.1146  
G01 X9.3330  Y4.1146  
G01 X9.3016  Y4.1276  
G01 X9.2776  Y4.1516  
G01 X9.2646  Y4.1830  
G01 X9.2646  Y5.8170  
G01 X9.2776  Y5.8484  
G01 X9.3016  Y5.8724  
G01 X9.3330  Y5.8854  
G01 X9.5082  Y5.8854  
G01 X9.5082  Y6.1146  
G01 X9.3830  Y6.1146  
G01 X9.3516  Y6.1276  
G01 X9.3276  Y6.1516  
G01 X9.3146  Y6.1830  
G01 X9.3146  Y7.8170  
G01 X9.3276  Y7.8484  
G01 X9.3516  Y7.8724  
G01 X9.3830  Y7.8854  
G01 X9.5582  Y7.8854  
G01 X9.5582  Y8.2146  
G01 X8.5830  Y8.2146  
G01 X8.5516  Y8.2276  
G01 X8.5276  Y8.2516  
G01 X8.5146  Y8.2830  
G01 X8.5146  Y10.3170 
G01 X8.5276  Y10.3484 
G01 X8.5516  Y10.3724 
G01 X8.5830  Y10.3854 
G01 X10.4170 Y10.3854 
G01 X10.4484 Y10.3724 
G01 X10.4724 Y10.3484 
G01 X10.4854 Y10.3170 
G01 X10.4854 Y9.5295  
G01 X10.5083 Y9.4898  
G01 X10.5418 Y9.3647  
G01 X10.5418 Y7.8854  
G01 X10.7170 Y7.8854  
G01 X10.7484 Y7.8724  
G01 X10.7724 Y7.8484  
G01 X10.7854 Y7.8170  
G01 X10.7854 Y6.1830  
G01 X10.7724 Y6.1516  
G01 X10.7484 Y6.1276  
G01 X10.7170 Y6.1146  
G01 X10.4918 Y6.1146  
G01 X10.4918 Y5.8854  
G01 X10.6670 Y5.8854  
G01 X10.6984 Y5.8724  
G01 X10.7224 Y5.8484  
G01 X10.7354 Y5.8170  
G01 X10.7354 Y4.1830  
G01 X10.7224 Y4.1516  
G01 X10.6984 Y4.1276  
G01 X10.6670 Y4.1146  
G01 X10.4918 Y4.1146  
G01 X10.4918 Y1.9352  
G01 X10.4583 Y1.8102  
G01 X10.3935 Y1.6980  
G01 X10.3074 Y1.6119  
G01 X10.3074 Y1.1545  
G01 X10.2748 Y0.9908  
G01 X10.2110 Y0.8366  
G01 X10.1182 Y0.6978  
G01 X10.0002 Y0.5798  
G01 X9.8614  Y0.4870  
G01 X9.7072  Y0.4232  
G01 X9.5435  Y0.3906  
G01 X9.3765  Y0.3906  
G01 X9.2128  Y0.4232  
G01 X9.0586  Y0.4870  
G01 X8.9198  Y0.5798  
G01 X8.8018  Y0.6978  
G00 Z2.5400  
G00 X11.3418 Y0.6978  
G01 Z-0.0750 F254   
G01 X11.2490 Y0.8366  F508   
G01 X11.1852 Y0.9908  
G01 X11.1526 Y1.1545  
G01 X11.1526 Y2.8455  
G01 X11.1852 Y3.0092  
G01 X11.2490 Y3.1634  
G01 X11.3418 Y3.3022  
G01 X11.4598 Y3.4202  
G01 X11.5082 Y3.4525  
G01 X11.5082 Y4.1146  
G01 X11.3330 Y4.1146  
G01 X11.3016 Y4.1276  
G01 X11.2776 Y4.1516  
G01 X11.2646 Y4.1830  
G01 X11.2646 Y5.8170  
G01 X11.2776 Y5.8484  
G01 X11.3016 Y5.8724  
G01 X11.3330 Y5.8854  
G01 X11.5082 Y5.8854  
G01 X11.5082 Y6.1146  
G01 X11.2830 Y6.1146  
G01 X11.2516 Y6.1276  
G01 X11.2276 Y6.1516  
G01 X11.2146 Y6.1830  
G01 X11.2146 Y7.8170  
G01 X11.2276 Y7.8484  
G01 X11.2516 Y7.8724  
G01 X11.2830 Y7.8854  
G01 X11.4582 Y7.8854  
G01 X11.4582 Y8.2146  
G01 X11.0830 Y8.2146  
G01 X11.0516 Y8.2276  
G01 X11.0276 Y8.2516  
G01 X11.0146 Y8.2830  
G01 X11.0146 Y10.3170 
G01 X11.0276 Y10.3484 
G01 X11.0516 Y10.3724 
G01 X11.0830 Y10.3854 
G01 X12.9170 Y10.3854 
G01 X12.9484 Y10.3724 
G01 X12.9724 Y10.3484 
G01 X12.9854 Y10.3170 
G01 X12.9854 Y8.2830  
G01 X12.9724 Y8.2516  
G01 X12.9484 Y8.2276  
G01 X12.9170 Y8.2146  
G01 X12.4418 Y8.2146  
G01 X12.4418 Y7.8854  
G01 X12.6170 Y7.8854  
G01 X12.6484 Y7.8724  
G01 X12.6724 Y7.8484  
G01 X12.6854 Y7.8170  
G01 X12.6854 Y6.1830  
G01 X12.6724 Y6.1516  
G01 X12.6484 Y6.1276  
G01 X12.6170 Y6.1146  
G01 X12.4918 Y6.1146  
G01 X12.4918 Y5.8854  
G01 X12.6670 Y5.8854  
G01 X12.6984 Y5.8724  
G01 X12.7224 Y5.8484  
G01 X12.7354 Y5.8170  
G01 X12.7354 Y4.1830  
G01 X12.7224 Y4.1516  
G01 X12.6984 Y4.1276  
G01 X12.6670 Y4.1146  
G01 X12.4918 Y4.1146  
G01 X12.4918 Y3.4525  
G01 X12.5402 Y3.4202  
G01 X12.6582 Y3.3022  
G01 X12.7510 Y3.1634  
G01 X12.8148 Y3.0092  
G01 X12.8474 Y2.8455  
G01 X12.8474 Y1.1545  
G01 X12.8148 Y0.9908  
G01 X12.7510 Y0.8366  
G01 X12.6582 Y0.6978  
G01 X12.5402 Y0.5798  
G01 X12.4014 Y0.4870  
G01 X12.2472 Y0.4232  
G01 X12.0835 Y0.3906  
G01 X11.9165 Y0.3906  
G01 X11.7528 Y0.4232  
G01 X11.5986 Y0.4870  
G01 X11.4598 Y0.5798  
G01 X11.3418 Y0.6978  
G00 Z2.5400  
G00 X13.8818 Y0.6978  
G01 Z-0.0750 F254   
G01 X13.7890 Y0.8366  F508   
G01 X13.7252 Y0.9908  
G01 X13.6926 Y1.1545  
G01 X13.6926 Y2.8455  
G01 X13.7252 Y3.0092  
G01 X13.7890 Y3.1634  
G01 X13.8818 Y3.3022  
G01 X13.9998 Y3.4202  
G01 X14.0482 Y3.4525  
G01 X14.0482 Y8.2146  
G01 X13.5830 Y8.2146  
G01 X13.5516 Y8.2276  
G01 X13.5276 Y8.2516  
G01 X13.5146 Y8.2830  
G01 X13.5146 Y10.3170 
G01 X13.5276 Y10.3484 
G01 X13.5516 Y10.3724 
G01 X13.5830 Y10.3854 
G01 X15.4170 Y10.3854 
G01 X15.4484 Y10.3724 
G01 X15.4724 Y10.3484 
G01 X15.4854 Y10.3170 
G01 X15.4854 Y8.2830  
G01 X15.4724 Y8.2516  
G01 X15.4484 Y8.2276  
G01 X15.4170 Y8.2146  
G01 X15.0318 Y8.2146  
G01 X15.0318 Y3.4525  
G01 X15.0802 Y3.4202  
G01 X15.1982 Y3.3022  
G01 X15.2910 Y3.1634  
G01 X15.3548 Y3.0092  
G01 X15.3874 Y2.8455  
G01 X15.3874 Y1.1545  
G01 X15.3548 Y0.9908  
G01 X15.2910 Y0.8366  
G01 X15.1982 Y0.6978  
G01 X15.0802 Y0.5798  
G01 X14.9414 Y0.4870  
G01 X14.7872 Y0.4232  
G01 X14.6235 Y0.3906  
G01 X14.4565 Y0.3906  
G01 X14.2928 Y0.4232  
G01 X14.1386 Y0.4870  
G01 X13.9998 Y0.5798  
G01 X13.8818 Y0.6978  
G00 Z2.5400  
G00 X12.9484 Y22.1276 
G01 Z-0.0750 F254   
G01 X12.9170 Y22.1146 F508   
G01 X11.0830 Y22.1146 
G01 X11.0516 Y22.1276 
G01 X11.0276 Y22.1516 
G01 X11.0146 Y22.1830 
G01 X11.0146 Y24.2170 
G01 X11.0276 Y24.2484 
G01 X11.0516 Y24.2724 
G01 X11.0830 Y24.2854 
G01 X12.9170 Y24.2854 
G01 X12.9484 Y24.2724 
G01 X12.9724 Y24.2484 
G01 X12.9854 Y24.2170 
G01 X12.9854 Y22.1830 
G01 X12.9724 Y22.1516 
G01 X12.9484 Y22.1276 
G00 Z2.5400  
G82 X12.0000 Y17.0000 Z-0.1000 F508   R2.5400  P0.500000
G82 X19.5000 Y7.0000  
G82 X4.5000  Y7.0000  
G82 X12.0000 Y27.0000 
G82 X12.0000 Y17.0000 
G82 X16.2500 Y11.5000 
G82 X7.7500  Y11.5000 
G82 X9.4600  Y2.0000  
G82 X12.0000 Y2.0000  
G82 X14.5400 Y2.0000  
G00 Z40.0000 
M05
M02
